icons/quill-pen-line.svg

<svg viewBox="0 0 24 24" fill="currentColor" xmlns="http://www.w3.org/2000/svg"><path d="M6.93912 14.0328C6.7072 14.6563 6.51032 15.2331 6.33421 15.8155C7.29345 15.1189 8.43544 14.6767 9.75193 14.5121C12.2652 14.198 14.4976 12.5385 15.6279 10.4537L14.1721 8.99888L15.5848 7.58417C15.9185 7.25004 16.2521 6.91614 16.5858 6.58248C17.0151 6.15312 17.5 5.35849 18.0129 4.2149C12.4197 5.08182 8.99484 8.50647 6.93912 14.0328ZM17 8.99739L18 9.99669C17 12.9967 14 15.9967 10 16.4967C7.33146 16.8303 5.66421 18.6636 4.99824 21.9967H3C4 15.9967 6 1.99669 21 1.99669C20.0009 4.99402 19.0018 6.99313 18.0027 7.99402C17.6662 8.33049 17.3331 8.66382 17 8.99739Z"/></svg>

<svg xmlns="http://www.w3.org/2000/svg" viewBox="0 0 24 24">
    <g>
        <path fill="none" d="M0 0h24v24H0z"/>
        <path d="M6.94 14.036c-.233.624-.43 1.2-.606 1.783.96-.697 2.101-1.139 3.418-1.304 2.513-.314 4.746-1.973 5.876-4.058l-1.456-1.455 1.413-1.415 1-1.001c.43-.43.915-1.224 1.428-2.368-5.593.867-9.018 4.292-11.074 9.818zM17 9.001L18 10c-1 3-4 6-8 6.5-2.669.334-4.336 2.167-5.002 5.5H3C4 16 6 2 21 2c-1 2.997-1.998 4.996-2.997 5.997L17 9.001z"/>
    </g>
</svg>
